X: 1911
T: New Park
P: Lady Georgina Gordon's Reel
C:Wm. Marshall
R:Strathspey (8x32)
B:RSCDS 19-11
Z:Anselm Lingnau <anselm@strathspey.org>
M:4/4
L:1/8
K:F
C|"F"F<F F2 A>F A<c|"Bb"d<f "F"c>A "C"G3 A|\
  "F"F<F F2 A>F A<c|"Bb"d<f "C7"c>A "F"F3 C|
  "F"F<F F2 A>F A<c|"Bb"d<f "F"c>A "C"G3 A|\
  "F"F<F F2 A>F A<c|"Bb"d<f "C7"c>A "F"F3 C|
c|"F"f>g a>g a/g/f/d/ c>d|c>d f>a "C"g3 a|\
  "F"f>g a>g a/g/f/d/ c>d|"Bb"d<f "C7"c>A "F"F3 c|
  "F"f>g a>g a/g/f/d/ c>d|c>d f>a "C"g3 f/g/|\
  "F"a>f a/g/f/e/ f>c "Bb"d<f|"C7"c>B A>G "F"F3|]
%%center Book19/1911-New_Park-AL.abc

%%sep 1 1 500
%%sep 1 1 500

